X: 24652
T: MacFarlane's Rant
R: reel
M: 4/4
K: Amixolydian
e|fA A/A/A edBd|fA A/A/A e2 de|fA A/A/A edBd|affa e2 d:|
e|f2fd edBd|f/f/f fd e2 de|f2fd edBd|affa e2 de|
f2fd edBd|f/f/f fd e2 de|fA A/A/A BABd|affa e2d||

